remix/Logos/visa-line.svg

<svg viewBox="0 0 24 24" fill="currentColor" xmlns="http://www.w3.org/2000/svg"><path d="M22.2215 15.7683L21.9974 14.6431L19.4831 14.6431L19.0837 15.7599L17.0677 15.7643C18.3633 12.6514 19.3247 10.3455 19.952 8.84657C20.1159 8.45511 20.4072 8.25543 20.8364 8.25848C21.1638 8.26094 21.6991 8.26124 22.4421 8.25942L24 15.7648L22.2215 15.7683ZM20.0485 13.1018H21.6692L21.0642 10.2819L20.0485 13.1018ZM7.06069 8.2567L9.08703 8.25933L5.95498 15.7683L3.90367 15.7675C3.21013 13.0896 2.70084 11.1042 2.37581 9.81122C2.27616 9.4148 2.07796 9.13797 1.69702 9.00705C1.35736 8.89031 0.791683 8.7098 0 8.46553V8.25942C1.48023 8.25924 2.55921 8.25924 3.23694 8.25942C3.7974 8.25959 4.12411 8.53015 4.22922 9.08566C4.33473 9.6435 4.60127 11.0616 5.02884 13.3398L7.06069 8.2567ZM11.8702 8.25934L10.2695 15.7676L8.34108 15.7648C8.37914 15.5824 8.91202 13.0797 9.93972 8.2567L11.8702 8.25934ZM15.7815 8.12012C16.3578 8.12012 17.0846 8.2992 17.5035 8.46553L17.1652 10.0221C16.7871 9.87023 16.1657 9.66491 15.6424 9.67294C14.8813 9.68462 14.4117 10.004 14.4117 10.3105C14.4117 10.808 15.2277 11.0586 16.0681 11.603C17.0265 12.2237 17.1531 12.78 17.1412 13.3856C17.1277 14.6413 16.0681 15.8801 13.8322 15.8801C12.8111 15.8648 12.4444 15.7791 11.6122 15.4839L11.9637 13.8595C12.8106 14.2142 13.1698 14.327 13.8935 14.327C14.5569 14.327 15.1263 14.0589 15.1312 13.5919C15.1347 13.2598 14.9316 13.0955 14.1871 12.6847C13.4427 12.2739 12.3994 11.706 12.4128 10.5631C12.43 9.10074 13.815 8.12012 15.7815 8.12012Z"/></svg>

<svg viewBox="0 0 24 24" xmlns="http://www.w3.org/2000/svg"><path fill="none" d="M0 0h24v24H0Z"/><path d="M22.22 15.76l-.23-1.125h-2.52l-.4 1.11 -2.02 0 -.001 0c.95-2.31 1.92-4.62 2.88-6.92 .16-.391.45-.59.88-.59 .32 0 .86 0 1.6 0l1.55 7.5 -1.78 0Zm-2.18-2.67h1.62l-.61-2.82 -1.02 2.82ZM7.05 8.24l2.026 0 -3.14 7.51 -2.06-.01 0-.001c-.52-1.99-1.03-3.97-1.53-5.96 -.1-.4-.3-.673-.68-.81 -.34-.12-.91-.3-1.7-.55V8.2H3.2c.56 0 .88.27.992.827 .1.55.37 1.97.8 4.254L7.02 8.2Zm4.81 0l-1.61 7.5 -1.93-.01 1.6-7.51 1.93 0Zm3.91-.14c.577 0 1.3.18 1.72.34l-.34 1.55c-.38-.16-1-.36-1.53-.35 -.76.01-1.23.33-1.23.63 0 .49.81.74 1.65 1.29 .95.62 1.08 1.17 1.07 1.782 -.02 1.25-1.08 2.49-3.31 2.49 -1.02-.02-1.388-.11-2.22-.4l.35-1.625c.84.35 1.2.46 1.93.46 .66 0 1.23-.27 1.237-.74 0-.34-.2-.5-.95-.907 -.75-.42-1.79-.98-1.78-2.122 .01-1.47 1.4-2.45 3.36-2.45Z"/></svg>
